icons/solid/gif.svg

<svg width="24" height="24" viewBox="0 0 24 24" fill="none" xmlns="http://www.w3.org/2000/svg">
<path fill-rule="evenodd" clip-rule="evenodd" d="M4.5 3.75C2.84315 3.75 1.5 5.09315 1.5 6.75V17.25C1.5 18.9069 2.84315 20.25 4.5 20.25H19.5C21.1569 20.25 22.5 18.9069 22.5 17.25V6.75C22.5 5.09315 21.1569 3.75 19.5 3.75H4.5ZM13.5 8.25C13.5 7.83579 13.1642 7.5 12.75 7.5C12.3358 7.5 12 7.83579 12 8.25V15.75C12 16.1642 12.3358 16.5 12.75 16.5C13.1642 16.5 13.5 16.1642 13.5 15.75V8.25ZM15 8.25C15 7.83579 15.3358 7.5 15.75 7.5H18.75C19.1642 7.5 19.5 7.83579 19.5 8.25C19.5 8.66421 19.1642 9 18.75 9H16.5V11.25H18C18.4142 11.25 18.75 11.5858 18.75 12C18.75 12.4142 18.4142 12.75 18 12.75H16.5V15.75C16.5 16.1642 16.1642 16.5 15.75 16.5C15.3358 16.5 15 16.1642 15 15.75V8.25ZM6.63565 9.77966C7.03978 9.20475 7.5033 9 7.88604 9C8.26878 9 8.7323 9.20475 9.13643 9.77966C9.37463 10.1185 9.84244 10.2001 10.1813 9.96192C10.5202 9.72372 10.6018 9.25591 10.3636 8.91704C9.73827 8.02749 8.85254 7.5 7.88604 7.5C6.91953 7.5 6.03381 8.02749 5.4085 8.91704C4.7885 9.79905 4.5 10.9173 4.5 12C4.5 13.0827 4.7885 14.201 5.4085 15.083C6.03381 15.9725 6.91953 16.5 7.88604 16.5C8.85254 16.5 9.73827 15.9725 10.3636 15.083C10.4524 14.9567 10.5 14.806 10.5 14.6517V12C10.5 11.5858 10.1642 11.25 9.75 11.25H8.25C7.83579 11.25 7.5 11.5858 7.5 12C7.5 12.4142 7.83579 12.75 8.25 12.75H9V14.3981C8.6305 14.8381 8.22634 15 7.88604 15C7.5033 15 7.03978 14.7953 6.63565 14.2203C6.22622 13.6379 6 12.8367 6 12C6 11.1633 6.22622 10.3621 6.63565 9.77966Z" fill="#0F172A"/>
</svg>

<svg xmlns="http://www.w3.org/2000/svg" viewBox="0 0 24 24" fill="currentColor" aria-hidden="true" data-slot="icon">
  <path fill-rule="evenodd" d="M4.5 3.75a3 3 0 0 0-3 3v10.5a3 3 0 0 0 3 3h15a3 3 0 0 0 3-3V6.75a3 3 0 0 0-3-3h-15Zm9 4.5a.75.75 0 0 0-1.5 0v7.5a.75.75 0 0 0 1.5 0v-7.5Zm1.5 0a.75.75 0 0 1 .75-.75h3a.75.75 0 0 1 0 1.5H16.5v2.25H18a.75.75 0 0 1 0 1.5h-1.5v3a.75.75 0 0 1-1.5 0v-7.5ZM6.636 9.78c.404-.575.867-.78 1.25-.78s.846.205 1.25.78a.75.75 0 0 0 1.228-.863C9.738 8.027 8.853 7.5 7.886 7.5c-.966 0-1.852.527-2.478 1.417-.62.882-.908 2-.908 3.083 0 1.083.288 2.201.909 3.083.625.89 1.51 1.417 2.477 1.417.967 0 1.852-.527 2.478-1.417a.75.75 0 0 0 .136-.431V12a.75.75 0 0 0-.75-.75h-1.5a.75.75 0 0 0 0 1.5H9v1.648c-.37.44-.774.602-1.114.602-.383 0-.846-.205-1.25-.78C6.226 13.638 6 12.837 6 12c0-.837.226-1.638.636-2.22Z" clip-rule="evenodd"/>
</svg>
